!!!COM: Andrea Rota Bolognesse
!!!OTL: Motet Da Pacem Domine
!!!PPP: Bologna
!!!YOR: G.B. Martini, "Esemplare" 1774.
**kern	**kern	**kern	**kern	**kern	**kern
*free	*CF	*conseq	*free	*free	*guida
*clefF4	*clefF3	*clefC4	*clefC3	*clefC3	*clefC1
*k[]	*k[]	*k[]	*k[]	*k[]	*k[]
*M4/2	*M4/2	*M4/2	*M4/2	*M4/2	*M4/2
=1-	=1-	=1-	=1-	=1-	=1-
0r	0r	0r	0r	0d	0r
=2	=2	=2	=2	=2	=2
0r	0r	0r	0r	1c	0r
.	.	.	.	2d	.
.	.	.	.	[2f	.
=3	=3	=3	=3	=3	=3
0r	0r	0r	0r	4f]	0a
.	.	.	.	4e	.
.	.	.	.	2d	.
.	.	.	.	2c	.
.	.	.	.	[2f	.
=4	=4	=4	=4	=4	=4
1r	0r	0r	0r	2f]	1g
.	.	.	.	2e	.
[1D	.	.	.	1f	1a
=5	=5	=5	=5	=5	=5
1D]	0r	0r	0r	1d	1f
1C	.	.	.	1e	2.g
.	.	.	.	.	4g
=6	=6	=6	=6	=6	=6
2D	0r	0A	0r	2f	2f
2.F	.	.	.	2c	1a
.	.	.	.	2d	.
4E	.	.	.	.	.
4D	.	.	.	[2f	2a
4C	.	.	.	.	.
=7	=7	=7	=7	=7	=7
2BB-	0r	1G	1r	2f]	1b-
2GG	.	.	.	2e	.
1D	.	1A	[1d	2.f	2a
.	.	.	.	.	[2a
.	.	.	.	4e	.
=8	=8	=8	=8	=8	=8
1D	0r	1F	1d]	2d	4a]
.	.	.	.	.	4g
.	.	.	.	1f	4a
.	.	.	.	.	4b
1E	.	2.G	1c	.	1cc
.	.	.	.	[2e	.
.	.	4G	.	.	.
=9	=9	=9	=9	=9	=9
2F	0r	2F	2d	4e]	0a
.	.	.	.	4d	.
4E	.	1A	2.f	1d	.
4D	.	.	.	.	.
1A	.	.	.	.	.
.	.	.	8e	.	.
.	.	.	8d	.	.
.	.	2A	4e	2c#	.
.	.	.	4f	.	.
=10	=10	=10	=10	=10	=10
2G	1r	1B-	2g	1d	0r
1G	.	.	2d	.	.
.	1D	2A	1d	1r	.
4F#	.	[2A	.	.	.
4E	.	.	.	.	.
=11	=11	=11	=11	=11	=11
1F	1D	4A]	1d	0r	0r
.	.	4G	.	.	.
.	.	4A	.	.	.
.	.	4B	.	.	.
1G	1C	1c	1e	.	.
=12	=12	=12	=12	=12	=12
0r	1D	0A	1f	1d	1r
.	1F	.	2f	1c	[1a
.	.	.	[2f	.	.
=13	=13	=13	=13	=13	=13
0r	1F	0r	4f]	2d	1a]
.	.	.	4e	.	.
.	.	.	4d	1f	.
.	.	.	4c	.	.
.	1G	.	1B-	.	1g
.	.	.	.	2e	.
=14	=14	=14	=14	=14	=14
1D	1F	0r	2A	2f	1a
.	.	.	2.f	2d	.
1C	1r	.	.	2.g	2.cc
.	.	.	8e	.	.
.	.	.	8d	.	.
.	.	.	2e	.	.
.	.	.	.	4g	4b
=15	=15	=15	=15	=15	=15
1D	0r	1r	2f	0f	4a
.	.	.	.	.	4g
.	.	.	2d	.	1a
2.F	.	[1A	2c	.	.
.	.	.	2d	.	2a
4E	.	.	.	.	.
=16	=16	=16	=16	=16	=16
2D	1r	1A]	2f	2r	1a
2AA	.	.	4e	1c	.
.	.	.	4d	.	.
2.C	1E	1G	2e	.	1r
.	.	.	2g	2c	.
4C	.	.	.	.	.
=17	=17	=17	=17	=17	=17
1FF	1F	1A	1f	2.c	0r
.	.	.	.	4d	.
1C	[1G	2.c	1r	1e	.
.	.	4B	.	.	.
=18	=18	=18	=18	=18	=18
1D	2G]	4A	0r	2d	1r
.	.	4G	.	.	.
.	2F	1A	.	1d	.
1AA	1E	.	.	.	1e
.	.	2A	.	2c#	.
=19	=19	=19	=19	=19	=19
2.D	0D	1A	2r	1d	1f
.	.	.	1d	.	.
4C	.	.	.	.	.
2BB-	.	1r	.	2r	1g
2GG	.	.	2B-	[2d	.
=20	=20	=20	=20	=20	=20
1D	0r	0r	2A	2d]	2f
.	.	.	2f	2A	1a
1AA	.	.	[1e	4c	.
.	.	.	.	4B	.
.	.	.	.	4A	[2cc
.	.	.	.	4G	.
=21	=21	=21	=21	=21	=21
0r	0r	1r	1e]	2A	4cc]
.	.	.	.	.	4b
.	.	.	.	2c	1a
.	.	1E	1e	1B	.
.	.	.	.	.	2g#
=22	=22	=22	=22	=22	=22
0r	0r	1F	2r	1A	1a
.	.	.	1c	.	.
.	.	1G	.	2.d	1r
.	.	.	2B	.	.
.	.	.	.	4e	.
=23	=23	=23	=23	=23	=23
0r	1r	2F	0c	2f	0r
.	.	1A	.	2e	.
.	[1F	.	.	2.A	.
.	.	[2c	.	.	.
.	.	.	.	4B	.
=24	=24	=24	=24	=24	=24
0r	1F]	4c]	1A	2c	0r
.	.	4B	.	.	.
.	.	1A	.	2d	.
.	1E	.	2c	1e	.
.	.	2G#	2B	.	.
=25	=25	=25	=25	=25	=25
2r	1F	1A	2.d	1r	1r
1D	.	.	.	.	.
.	.	.	4A	.	.
.	1D	1r	2B-	1f	2r
2D	.	.	2A	.	[2dd
=26	=26	=26	=26	=26	=26
1AA	1E	0r	1A	2e	2dd]
.	.	.	.	1A	2cc
1FF	[1F	.	1r	.	2cc
.	.	.	.	2c	2a
=27	=27	=27	=27	=27	=27
2BB-	2F]	0r	0r	2d	1b-
4AA	2G	.	.	2e	.
4GG	.	.	.	.	.
[1D	1A	.	.	[1f	[1a
=28	=28	=28	=28	=28	=28
2D]	1.B-	1r	1r	2f]	2a]
2G	.	.	.	2d	2g
1D	.	2r	1f	1d	2f
.	2A	[2d	.	.	2d
=29	=29	=29	=29	=29	=29
1r	1A	2d]	2e	0r	0e
.	.	2c	1A	.	.
2r	1r	2c	.	.	.
[2A	.	2A	2c	.	.
=30	=30	=30	=30	=30	=30
2A]	0r	1B-	2d	0r	0r
2G	.	.	2e	.	.
2F	.	[1A	2.f	.	.
2D	.	.	.	.	.
.	.	.	4e	.	.
=31	=31	=31	=31	=31	=31
2F	1r	2A]	2d	0r	2r
2E	.	2G	2c#	.	2e
2.D	1A	2F	2d	.	4f
.	.	.	.	.	4g
.	.	2D	2f	.	4a
4D	.	.	.	.	4b
=32	=32	=32	=32	=32	=32
1AA	1A	0E	1e	2r	1cc
.	.	.	.	2e	.
1r	1G	.	1r	1e	2cc
.	.	.	.	.	2b
=33	=33	=33	=33	=33	=33
2r	1F	0r	1A	2d	2.dd
2D	.	.	.	2d	.
.	.	.	.	.	8cc
.	.	.	.	.	8b
1D	1F	.	2A	2f	2a
.	.	.	4G	4e	2b
.	.	.	4F	4d	.
=34	=34	=34	=34	=34	=34
2C	1G	2r	1c	2e	1cc
2C	.	2E	.	2c	.
2.FF	1F	4F	2A	1c	2r
.	.	4G	.	.	.
.	.	4A	2f	.	2a
4GG	.	4B	.	.	.
=35	=35	=35	=35	=35	=35
4AA	0r	1c	0e	1r	1a
4BB	.	.	.	.	.
4C	.	.	.	.	.
4D	.	.	.	.	.
1E	.	2c	.	2r	2g
.	.	2B	.	2e	2g
=36	=36	=36	=36	=36	=36
0D	0r	2.d	1A	4f	2f
.	.	.	.	4d	.
.	.	.	.	2.f	2d
.	.	8c	.	.	.
.	.	8B	.	.	.
.	.	2A	1r	.	1f
.	.	.	.	4e	.
.	.	2B	.	2d	.
=37	=37	=37	=37	=37	=37
1r	0r	1c	2r	1A	1e
.	.	.	2A	.	.
1D	.	2r	4B-	2F	1d
.	.	.	4A	.	.
.	.	2A	[2d	[2f	.
=38	=38	=38	=38	=38	=38
1F	0r	1A	4d]	4f]	0r
.	.	.	4c	8e	.
.	.	.	.	8d	.
.	.	.	1f	4c	.
.	.	.	.	4A	.
2C	.	2G	.	2.c	.
2C	.	2G	2e	.	.
.	.	.	.	4B	.
=39	=39	=39	=39	=39	=39
0D	0r	2F	2d	1A	0r
.	.	2D	2.f	.	.
.	.	1F	.	2A	.
.	.	.	4e	.	.
.	.	.	[2d	[2A	.
=40	=40	=40	=40	=40	=40
1AA	1r	1E	2d]	2A]	0a
.	.	.	2c#	2e	.
1r	[1F	1D	1d	1f	.
=41	=41	=41	=41	=41	=41
2r	1F]	0r	2r	1.c	0a
1FF	.	.	1A	.	.
.	1F	.	.	.	.
2FF	.	.	2A	2d	.
=42	=42	=42	=42	=42	=42
1C	1E	0r	2c	1e	1g
.	.	.	1G	.	.
1GG	[1G	.	.	1d	1b-
.	.	.	2g	.	.
=43	=43	=43	=43	=43	=43
1AA	2G]	0A	2e	2c#	1a
.	2F	.	1d	2d	.
1AA	1E	.	.	2.e	2a
.	.	.	2c#	.	[2a
.	.	.	.	8d	.
.	.	.	.	8e	.
=44	=44	=44	=44	=44	=44
1D	0D	0A	2d	0f	4a]
.	.	.	.	.	4g
.	.	.	1d	.	4f
.	.	.	.	.	4e
1D	.	.	.	.	2d
.	.	.	2A	.	[2dd
=45	=45	=45	=45	=45	=45
1.GG	0D	1G	2B-	1d	4dd]
.	.	.	.	.	4cc
.	.	.	1G	.	4b-
.	.	.	.	.	4a
.	.	1B-	.	2r	1g
2GG	.	.	[2g	[2d	.
=46	=46	=46	=46	=46	=46
2D	[0D	1A	2g]	2d]	1a
2.D	.	.	4f	2d	.
.	.	.	4e	.	.
.	.	2A	2.d	2f	2r
4E	.	.	.	.	.
2F	.	[2A	.	[2d	[2a
.	.	.	4e	.	.
=47	=47	=47	=47	=47	=47
2D	0D_	4A]	2f	4d]	2a]
.	.	4G	.	4e	.
2.D	.	4F	2d	2f	2a
.	.	4E	.	.	.
.	.	2D	1d	2f	2a
4C	.	.	.	.	.
4BB-	.	[2d	.	[2g	[2b-
4AA	.	.	.	.	.
=48	=48	=48	=48	=48	=48
0GG	0D_	4d]	[0d	2g]	2b-]
.	.	4c	.	.	.
.	.	4B-	.	2d	2g
.	.	4A	.	.	.
.	.	1G	.	1g	1b-
=49	=49	=49	=49	=49	=49
0D;	0D];	0A;	0d];	0f#;	0a;
==	==	==	==	==	==
*-	*-	*-	*-	*-	*-
!!!CDT: ~1553-1597
!!!OCY: Italia
!!!ODT: <1597
!!!CNT: Italian
!!!YEP: David Huron and Denis Collins
!!!YEN: Canada
!!!AIN: vox?
!!!AGN: motet
!!!AST: polyphony
!!!RDT: 1995 July 2
!!!YED: 1995 August 31
!!!AFR: cantus firmus canon
!!!AMT: simple quadruple
!!!EEV: 1.0
